X: 25178
T: Major Molle
R: reel
M: 4/4
K: Adorian
c2 B2|:AE (3EEE cBcd|AE (3EEE c2Bc|AE (3EEE cBcd|BGGB d2 cB|
AE (3EEE cBcd|AE (3EEE c2Bc|A2 e^f gfge|dBGB edcB||
|:A2 ed cBAG|A2 ed (3cdc (3BcB|A2 e^f gfge|dBGB edcB:|

